X:32
T:32 Laura and Lenza
C:Welch MS
I:abc2nwc
M:2/4
L:1/16
K:C
ed|c2e2c2e2|d2g2 gfed|c2e2c2e2|dcBA G2AB||
c2e2c2e2|d2g2 gfed|c2e2 d2gf|e2c2c2:|
A2|d^cdc defd|e2c2c2de|dcBA GABG|c2e2B2G2|
d^cdc defd|e2c2c2de|dcBA GABG|c2e2c2:|

